X: 78
M: C|
L: 1/8
K: A
|:\
|:\
c2cA c2cA | cAec A2Ac |\
|:\
ceee e2ee | fagf fedc |\
defd ecBA | Gfed {d}c2A2 :|
|:\
EAGF FEDC | D2E2 A,4 H:|

